Numix/16/status/indicator-keyboard-Hu-9.svg

<?xml version="1.0" encoding="UTF-8" standalone="no"?>
<svg
   xmlns:dc="http://purl.org/dc/elements/1.1/"
   xmlns:cc="http://creativecommons.org/ns#"
   xmlns:rdf="http://www.w3.org/1999/02/22-rdf-syntax-ns#"
   xmlns:svg="http://www.w3.org/2000/svg"
   xmlns="http://www.w3.org/2000/svg"
   xmlns:sodipodi="http://sodipodi.sourceforge.net/DTD/sodipodi-0.dtd"
   xmlns:inkscape="http://www.inkscape.org/namespaces/inkscape"
   viewBox="0 0 16 16"
   id="svg2"
   version="1.1"
   inkscape:version="0.91 r13725"
   sodipodi:docname="indicator-keyboard-Hu-9.svg">
  <metadata
     id="metadata14">
    <rdf:RDF>
      <cc:Work
         rdf:about="">
        <dc:format>image/svg+xml</dc:format>
        <dc:type
           rdf:resource="http://purl.org/dc/dcmitype/StillImage" />
      </cc:Work>
    </rdf:RDF>
  </metadata>
  <defs
     id="defs12" />
  <sodipodi:namedview
     pagecolor="#ffffff"
     bordercolor="#666666"
     borderopacity="1"
     objecttolerance="10"
     gridtolerance="10"
     guidetolerance="10"
     inkscape:pageopacity="0"
     inkscape:pageshadow="2"
     inkscape:window-width="459"
     inkscape:window-height="369"
     id="namedview10"
     showgrid="false"
     inkscape:zoom="14.75"
     inkscape:cx="8"
     inkscape:cy="8"
     inkscape:window-x="65"
     inkscape:window-y="24"
     inkscape:window-maximized="0"
     inkscape:current-layer="svg2" />
  <path
     style="fill:#ececec;fill-opacity:1"
     d="M 1.5996094 0 C 0.71320937 2.9605947e-16 0 0.71320937 0 1.5996094 L 0 14.400391 C 2.9605947e-16 15.286791 0.71320937 16 1.5996094 16 L 14.400391 16 C 15.286791 16 16 15.286791 16 14.400391 L 16 1.5996094 C 16 0.71320937 15.286791 0 14.400391 0 L 1.5996094 0 z M 1.3027344 4.859375 L 1.9140625 4.859375 L 1.9140625 7.5683594 L 5.2988281 7.5683594 L 5.2988281 4.859375 L 5.9101562 4.859375 L 5.9101562 11.095703 L 5.2988281 11.095703 L 5.2988281 8.0996094 L 1.9140625 8.0996094 L 1.9140625 11.095703 L 1.3027344 11.095703 L 1.3027344 4.859375 z M 7.4355469 6.4433594 L 8.0195312 6.4433594 L 8.0195312 8.8632812 C 8.0195312 9.1932812 8.0437969 9.4731719 8.0917969 9.7011719 C 8.1397969 9.9291721 8.2181719 10.115766 8.3261719 10.259766 C 8.4341719 10.397766 8.5722344 10.498453 8.7402344 10.564453 C 8.9142344 10.624453 9.1250938 10.654297 9.3710938 10.654297 C 9.6470937 10.654297 9.8858436 10.639375 10.089844 10.609375 C 10.293844 10.579375 10.422563 10.553297 10.476562 10.529297 L 10.476562 6.4433594 L 11.0625 6.4433594 L 11.0625 10.933594 C 10.8885 10.981594 10.655328 11.035703 10.361328 11.095703 C 10.067328 11.155703 9.70725 11.185547 9.28125 11.185547 C 8.93325 11.185547 8.6422031 11.135203 8.4082031 11.033203 C 8.1742031 10.931203 7.9838438 10.787563 7.8398438 10.601562 C 7.6958437 10.415563 7.5913906 10.189781 7.5253906 9.9257812 C 7.4653906 9.6617812 7.4355469 9.3707344 7.4355469 9.0527344 L 7.4355469 6.4433594 z M 13.398438 8.7539062 C 13.823538 8.7539062 14.144881 8.9047781 14.363281 9.2050781 C 14.585581 9.5014781 14.697266 9.9168718 14.697266 10.451172 C 14.697266 11.266272 14.501328 11.879569 14.111328 12.292969 C 13.721328 12.702469 13.153097 12.908203 12.404297 12.908203 L 12.392578 12.591797 C 12.649978 12.591797 12.885109 12.562406 13.099609 12.503906 C 13.314109 12.445406 13.50025 12.355275 13.65625 12.234375 C 13.81615 12.109575 13.945469 11.952819 14.042969 11.761719 C 14.144369 11.566719 14.210994 11.331594 14.246094 11.058594 C 14.140794 11.113194 14.015388 11.162178 13.867188 11.205078 C 13.718988 11.244078 13.560278 11.263672 13.392578 11.263672 C 13.174178 11.263672 12.988038 11.230363 12.835938 11.164062 C 12.683838 11.093863 12.56235 11.001772 12.46875 10.888672 C 12.37515 10.775572 12.306572 10.646247 12.263672 10.498047 C 12.220772 10.349847 12.199219 10.195056 12.199219 10.035156 C 12.199219 9.8869562 12.222731 9.7360844 12.269531 9.5839844 C 12.316331 9.4318844 12.388828 9.2966812 12.486328 9.1757812 C 12.587728 9.0509812 12.711175 8.9490938 12.859375 8.8710938 C 13.011475 8.7930937 13.191737 8.7539062 13.398438 8.7539062 z M 13.404297 9.0878906 C 13.259997 9.0878906 13.136556 9.1153219 13.035156 9.1699219 C 12.933756 9.2206219 12.853416 9.2892 12.791016 9.375 C 12.728616 9.4608 12.681591 9.5587751 12.650391 9.671875 C 12.623091 9.784975 12.609375 9.9025374 12.609375 10.023438 C 12.609375 10.331537 12.677953 10.560784 12.814453 10.708984 C 12.954853 10.857184 13.158634 10.929687 13.427734 10.929688 C 13.607134 10.929688 13.763884 10.910094 13.896484 10.871094 C 14.032984 10.828194 14.158391 10.781163 14.275391 10.726562 C 14.279324 10.679762 14.28125 10.634697 14.28125 10.591797 C 14.285117 10.548897 14.287109 10.499912 14.287109 10.445312 C 14.287109 10.262013 14.273394 10.087628 14.246094 9.9238281 C 14.222694 9.7600281 14.175669 9.6169874 14.105469 9.4921875 C 14.039169 9.3673875 13.950991 9.2694188 13.837891 9.1992188 C 13.724791 9.1251188 13.579797 9.0878906 13.404297 9.0878906 z "
     id="path4" />
</svg>

<svg xmlns="http://www.w3.org/2000/svg" viewBox="0 0 16 16">
 <path d="m 1.6 0 c -0.886 0 -1.6 0.713 -1.6 1.6 l 0 12.801 c 0 0.886 0.713 1.6 1.6 1.6 l 12.801 0 c 0.886 0 1.6 -0.713 1.6 -1.6 l 0 -12.801 c 0 -0.886 -0.713 -1.6 -1.6 -1.6 l -12.801 0 z m -0.297 4.859 l 0.611 0 l 0 2.709 l 3.385 0 l 0 -2.709 l 0.611 0 l 0 6.236 l -0.611 0 l 0 -2.996 l -3.385 0 l 0 2.996 l -0.611 0 l 0 -6.236 z m 6.133 1.584 l 0.584 0 l 0 2.42 c 0 0.33 0.024 0.61 0.072 0.838 c 0.048 0.228 0.126 0.415 0.234 0.559 c 0.108 0.138 0.246 0.239 0.414 0.305 c 0.174 0.06 0.385 0.09 0.631 0.09 c 0.276 0 0.515 -0.015 0.719 -0.045 c 0.204 -0.03 0.333 -0.056 0.387 -0.08 l 0 -4.086 l 0.586 0 l 0 4.49 c -0.174 0.048 -0.407 0.102 -0.701 0.162 c -0.294 0.06 -0.654 0.09 -1.08 0.09 c -0.348 0 -0.639 -0.05 -0.873 -0.152 c -0.234 -0.102 -0.424 -0.246 -0.568 -0.432 c -0.144 -0.186 -0.248 -0.412 -0.314 -0.676 c -0.06 -0.264 -0.09 -0.555 -0.09 -0.873 l 0 -2.609 z m 5.963 2.311 c 0.425 0 0.746 0.151 0.965 0.451 c 0.222 0.296 0.334 0.712 0.334 1.246 c 0 0.815 -0.196 1.428 -0.586 1.842 c -0.39 0.41 -0.958 0.615 -1.707 0.615 l -0.012 -0.316 c 0.257 0 0.493 -0.029 0.707 -0.088 c 0.215 -0.059 0.401 -0.149 0.557 -0.27 c 0.16 -0.125 0.289 -0.282 0.387 -0.473 c 0.101 -0.195 0.168 -0.43 0.203 -0.703 c -0.105 0.055 -0.231 0.104 -0.379 0.146 c -0.148 0.039 -0.307 0.059 -0.475 0.059 c -0.218 0 -0.405 -0.033 -0.557 -0.1 c -0.152 -0.07 -0.274 -0.162 -0.367 -0.275 c -0.094 -0.113 -0.162 -0.242 -0.205 -0.391 c -0.043 -0.148 -0.064 -0.303 -0.064 -0.463 c 0 -0.148 0.024 -0.299 0.07 -0.451 c 0.047 -0.152 0.119 -0.287 0.217 -0.408 c 0.101 -0.125 0.225 -0.227 0.373 -0.305 c 0.152 -0.078 0.332 -0.117 0.539 -0.117 z m 0.006 0.334 c -0.144 0 -0.268 0.027 -0.369 0.082 c -0.101 0.051 -0.182 0.119 -0.244 0.205 c -0.062 0.086 -0.109 0.184 -0.141 0.297 c -0.027 0.113 -0.041 0.231 -0.041 0.352 c 0 0.308 0.069 0.537 0.205 0.686 c 0.14 0.148 0.344 0.221 0.613 0.221 c 0.179 0 0.336 -0.02 0.469 -0.059 c 0.137 -0.043 0.262 -0.09 0.379 -0.145 c 0.004 -0.047 0.006 -0.092 0.006 -0.135 c 0.004 -0.043 0.006 -0.092 0.006 -0.146 c 0 -0.183 -0.014 -0.358 -0.041 -0.521 c -0.023 -0.164 -0.07 -0.307 -0.141 -0.432 c -0.066 -0.125 -0.154 -0.223 -0.268 -0.293 c -0.113 -0.074 -0.258 -0.111 -0.434 -0.111 z" style="fill:#ececec;fill-opacity:1"/>
</svg>
